X: 30102
T: Olahos
R: polka
M: 2/4
K: Bminor
|:ee ec|ee ec|AB c<B|A2 A2:|
GG G>G|cc c>c|dd gf|e2 c2|
ee ec|ee ec|AB c<B|A4||

